Papirus/24x24/panel/krb-expiring-ticket.svg

<?xml version="1.0" encoding="UTF-8" standalone="no"?>
<svg xmlns:dc="http://purl.org/dc/elements/1.1/" xmlns:cc="http://creativecommons.org/ns#" xmlns:rdf="http://www.w3.org/1999/02/22-rdf-syntax-ns#" xmlns:svg="http://www.w3.org/2000/svg" xmlns="http://www.w3.org/2000/svg" width="24" viewBox="0 0 24 24" height="24" version="1.1" id="svg6530">
    <metadata id="metadata6535">
        <rdf:RDF>
            <cc:Work rdf:about="">
                <dc:format>
                    image/svg+xml
                </dc:format>
                <dc:type rdf:resource="http://purl.org/dc/dcmitype/StillImage"/>
                <dc:title/>
            </cc:Work>
        </rdf:RDF>
    </metadata>
    <path id="path11076" style="fill:#5294e2;fill-opacity:1;enable-background:new" d="M 8.5,8 C 6.0147,8 4,10.0147 4,12.5 4,14.9853 6.0147,17 8.5,17 c 1.9047,-0.003 3.6014,-1.2042 4.2363,-3 L 16,13.996 l 0,2 3,0 0,-2.0039 1,0.004 0,-3 -7.2637,0.004 C 12.1014,9.2043 10.4047,8.0028 8.5,8.0001 Z m 0,3 C 9.32843,11 10,11.67157 10,12.5 10,13.32843 9.32843,14 8.5,14 7.67157,14 7,13.32843 7,12.5 7,11.67157 7.67157,11 8.5,11 Z"/>
</svg>

<?xml version="1.0" encoding="UTF-8" standalone="no"?>
<svg id="svg6530" xmlns:rdf="http://www.w3.org/1999/02/22-rdf-syntax-ns#" xmlns="http://www.w3.org/2000/svg" height="24" width="24" version="1.1" xmlns:cc="http://creativecommons.org/ns#" viewBox="0 0 24 24" xmlns:dc="http://purl.org/dc/elements/1.1/">
 <metadata id="metadata6535">
  <rdf:RDF>
   <cc:Work rdf:about="">
    <dc:format>image/svg+xml</dc:format>
    <dc:type rdf:resource="http://purl.org/dc/dcmitype/StillImage"/>
    <dc:title/>
   </cc:Work>
  </rdf:RDF>
 </metadata>
 <path id="path11076" style="enable-background:new" fill="#5294e2" d="m8.5 8c-2.4853 0-4.5 2.015-4.5 4.5s2.0147 4.5 4.5 4.5c1.9047-0.003 3.6014-1.2042 4.2363-3l3.264-0.004v2h3v-2.0039l1 0.004v-3l-7.2637 0.004c-0.635-1.7957-2.331-2.9972-4.236-2.9999zm0 3c0.8284 0 1.5 0.672 1.5 1.5s-0.6716 1.5-1.5 1.5-1.5-0.672-1.5-1.5 0.6716-1.5 1.5-1.5z"/>
</svg>
